X:69
T:Where I Told Her I Loved Her and Sprained Her Ankle
C:Ed Yother
C:c.2006
C:http://edyother.com
M:6/8
R:jig
K:G
GED DEG | B2G AGE | GED DEG | A3 AGE |
GED DEG | B2G AGE | GED DEF |[1 G3 GFE :|[2 G3 GBc |
|: dBB BGB | FGA BAB | cAA AFA | DEF GFG |
DEF GFG | AGE GAB | cBA DEF |[1 G3 GBc :|[2 G3 GED |]

